packages/core/src/svgs/tokens/mono/TAO.svg

<svg width="24" height="24" viewBox="0 0 24 24" fill="none" xmlns="http://www.w3.org/2000/svg">
<path d="M21.749 10.969L18.7119 13.65C18.8181 13.825 18.8556 14.05 18.7869 14.2624C18.7243 14.4561 18.5994 14.6124 18.4307 14.6936L19.1993 18.8556C19.5674 18.7525 19.8811 18.5105 20.0742 18.1806C20.5116 17.4801 20.7929 16.6936 20.8992 15.8747C20.9679 15.331 21.1303 14.7999 21.3802 14.3124C21.7553 13.575 21.9677 12.75 21.9989 11.9314C22.0115 11.5565 21.9177 11.2315 21.749 10.969Z" fill="white"/>
<path d="M17.5622 13.7004C17.6468 13.5446 17.7897 13.4288 17.9597 13.3784C18.1296 13.3281 18.3126 13.3472 18.4684 13.4316L21.543 10.7257C21.0056 10.2069 20.1057 10.057 19.2746 10.332L13.9626 12.1379C13.8403 12.1809 13.7365 12.2648 13.6689 12.3755L17.556 13.7004H17.5622Z" fill="white"/>
<path d="M16.9559 17.8308C17.4309 18.5183 18.1808 18.9558 18.8682 18.9307L18.0996 14.7937C18.0496 14.7937 17.9933 14.7812 17.937 14.7624C17.7941 14.7109 17.671 14.6155 17.5857 14.4897C17.5003 14.364 17.4571 14.2144 17.4621 14.0625L13.5625 12.7314C13.5625 12.8439 13.5939 12.9626 13.6688 13.0689L16.9559 17.8308Z" fill="white"/>
<path d="M15.9181 21.2495L12.5623 19.031C12.4373 19.1934 12.2498 19.2997 12.0311 19.2997C11.8437 19.2997 11.6562 19.2123 11.5375 19.0748L8.01904 21.137C8.20653 21.4432 8.494 21.6806 8.89394 21.7993C9.64389 22.0181 10.4562 22.0618 11.2313 21.9119C11.7474 21.8142 12.2773 21.8142 12.7935 21.9119C13.5684 22.0618 14.3809 22.0181 15.1307 21.7932C15.4745 21.6932 15.737 21.4994 15.9181 21.2557V21.2495Z" fill="white"/>
<path d="M12.1625 17.8618C12.3387 17.9051 12.4916 18.0139 12.5903 18.166C12.6891 18.3181 12.726 18.5021 12.6937 18.6806L16.0872 20.924C16.3934 20.2241 16.2496 19.2742 15.7372 18.5305L12.4687 13.7811C12.3944 13.6716 12.2837 13.592 12.1562 13.5562V17.8618H12.1625Z" fill="white"/>
<path d="M8.23826 18.5496C8.00528 18.8696 7.84771 19.2383 7.77737 19.6279C7.70701 20.0175 7.72572 20.4179 7.83206 20.7992L11.3442 18.7557C11.329 18.6986 11.3206 18.6398 11.3192 18.5808C11.3192 18.2557 11.5254 17.9809 11.8066 17.8934V13.5813C11.6949 13.6214 11.5986 13.6958 11.5317 13.7938L8.23826 18.5433V18.5496Z" fill="white"/>
<path d="M5.28824 13.65L2.24483 10.969C2.08236 11.2315 1.98861 11.5502 2.00111 11.9314C2.03236 12.7437 2.25108 13.575 2.62604 14.3124C2.86977 14.7999 3.03224 15.331 3.10099 15.8747C3.20627 16.6958 3.48765 17.4845 3.92589 18.1869C4.15711 18.5494 4.46333 18.7619 4.80079 18.8556L5.56945 14.6936C5.48384 14.6497 5.40809 14.5889 5.34684 14.5148C5.28559 14.4406 5.24012 14.3547 5.21325 14.2624C5.14451 14.05 5.182 13.825 5.28824 13.65Z" fill="white"/>
<path d="M5.15698 18.9124C5.84441 18.9373 6.59431 18.5061 7.06927 17.8125L10.3502 13.0629C10.4192 12.9616 10.4562 12.8419 10.4563 12.7192L6.56306 14.0504C6.56306 14.3629 6.38184 14.644 6.08812 14.7503C6.03188 14.769 5.97564 14.7753 5.91938 14.7815L5.15698 18.9124Z" fill="white"/>
<path d="M5.64465 13.394C5.95712 13.2877 6.28833 13.4252 6.44455 13.7126L10.3441 12.3816C10.2734 12.2726 10.1676 12.1909 10.0442 12.1504L4.73226 10.338C3.9011 10.0631 2.99496 10.213 2.45752 10.738L5.53842 13.4378L5.64465 13.394Z" fill="white"/>
<path d="M15.568 5.9381L14.0933 2.06354C14.3808 1.9698 14.6994 1.97605 15.0307 2.10728C15.7823 2.40211 16.4559 2.86614 16.9992 3.46337C17.3582 3.85969 17.7858 4.18785 18.2616 4.43202C18.9787 4.80197 19.6027 5.32973 20.0863 5.97559C20.3425 6.31931 20.4426 6.68801 20.4237 7.05046L16.4243 6.53803C16.4055 6.35054 16.3117 6.16932 16.1555 6.05058C16.0745 5.98715 15.9795 5.94389 15.8785 5.92434C15.7774 5.90477 15.6732 5.90949 15.5743 5.9381H15.568Z" fill="white"/>
<path d="M15.568 5.9381L14.0933 2.06354C14.3808 1.9698 14.6994 1.97605 15.0307 2.10728C15.7823 2.40211 16.4559 2.86614 16.9992 3.46337C17.3582 3.85969 17.7858 4.18785 18.2616 4.43202C18.9787 4.80197 19.6027 5.32973 20.0863 5.97559C20.3425 6.31931 20.4426 6.68801 20.4237 7.05046L16.4243 6.53803C16.4055 6.35054 16.3117 6.16932 16.1555 6.05058C16.0745 5.98715 15.9795 5.94389 15.8785 5.92434C15.7774 5.90477 15.6732 5.90949 15.5743 5.9381H15.568Z" fill="white"/>
<path d="M15.0497 6.23856C14.8623 6.51978 14.8873 6.89473 15.0934 7.14471L12.7438 10.6193C12.6649 10.5104 12.6232 10.3788 12.6251 10.2444L12.6313 4.38877C12.6313 3.47013 13.0437 2.61398 13.6687 2.23901L15.1248 6.15107L15.0497 6.23856Z" fill="white"/>
<path d="M15.0497 6.23856C14.8623 6.51978 14.8873 6.89473 15.0934 7.14471L12.7438 10.6193C12.6649 10.5104 12.6232 10.3788 12.6251 10.2444L12.6313 4.38877C12.6313 3.47013 13.0437 2.61398 13.6687 2.23901L15.1248 6.15107L15.0497 6.23856Z" fill="white"/>
<path d="M20.3994 7.43832C20.2787 7.8086 20.0719 8.14499 19.7961 8.41984C19.52 8.69469 19.1829 8.90016 18.8121 9.01938L13.4877 10.8316C13.3762 10.8693 13.2554 10.8693 13.144 10.8316L15.5563 7.34457C15.8312 7.45081 16.1499 7.35083 16.3374 7.0946C16.3686 7.03836 16.3998 6.98837 16.4186 6.93213L20.3994 7.44456V7.43832Z" fill="white"/>
<path d="M20.3994 7.43832C20.2787 7.8086 20.0719 8.14499 19.7961 8.41984C19.52 8.69469 19.1829 8.90016 18.8121 9.01938L13.4877 10.8316C13.3762 10.8693 13.2554 10.8693 13.144 10.8316L15.5563 7.34457C15.8312 7.45081 16.1499 7.35083 16.3374 7.0946C16.3686 7.03836 16.3998 6.98837 16.4186 6.93213L20.3994 7.44456V7.43832Z" fill="white"/>
<path d="M10.1064 2.06387L8.63157 5.93844C8.4441 5.87594 8.22537 5.91343 8.05039 6.05092C7.89416 6.1759 7.80042 6.35088 7.77542 6.53837L3.78839 7.0508C3.76338 6.68835 3.86337 6.31965 4.1196 5.97593C4.60334 5.33006 5.22725 4.80231 5.94439 4.43236C6.4201 4.18819 6.84777 3.86003 7.20674 3.46371C7.74826 2.86726 8.41964 2.40329 9.16907 2.10762C9.50022 1.98264 9.81897 1.97014 10.1064 2.05763V2.06387Z" fill="white"/>
<path d="M5.41309 9.01304C5.04391 8.89404 4.70818 8.6893 4.43336 8.41558C4.15856 8.14185 3.95248 7.80692 3.83203 7.43822L7.80657 6.92578C7.82532 6.98202 7.85657 7.03202 7.8878 7.08201C8.07529 7.34448 8.38775 7.44447 8.66897 7.33824L11.0749 10.8253C10.9635 10.8629 10.8426 10.8629 10.7312 10.8253L5.41935 9.01304H5.41309Z" fill="white"/>
<path d="M8.90697 7.14471C9.02149 7.00273 9.08131 6.82441 9.07558 6.64209C9.06984 6.45979 8.99893 6.28557 8.87573 6.15107L10.3318 2.23901C10.9568 2.61398 11.363 3.47638 11.3691 4.38877L11.3754 10.2631C11.3758 10.3955 11.3343 10.5245 11.2567 10.6318L8.90697 7.14471Z" fill="white"/>
</svg>

<svg xmlns="http://www.w3.org/2000/svg" width="24" height="24" fill="none" viewBox="0 0 24 24">
    <path fill="#fff" d="m21.749 10.969-3.037 2.681c.106.175.144.4.075.612a.7.7 0 0 1-.356.432l.768 4.162c.368-.104.682-.346.875-.675.438-.7.719-1.487.825-2.306a4.7 4.7 0 0 1 .481-1.563 5.8 5.8 0 0 0 .619-2.38c.013-.376-.081-.7-.25-.963M17.562 13.7a.67.67 0 0 1 .906-.268l3.075-2.706c-.537-.52-1.437-.669-2.268-.394l-5.312 1.806a.56.56 0 0 0-.294.238l3.887 1.324zm-.606 4.13c.475.688 1.225 1.126 1.912 1.1l-.768-4.136a.5.5 0 0 1-.163-.032.72.72 0 0 1-.475-.7l-3.9-1.33c0 .112.032.23.107.337zm-1.038 3.42-3.356-2.219a.67.67 0 0 1-.53.269.67.67 0 0 1-.495-.225L8.02 21.137c.188.306.475.544.875.662a5 5 0 0 0 2.337.113 4.2 4.2 0 0 1 1.563 0 4.9 4.9 0 0 0 2.337-.119c.344-.1.606-.294.787-.537zm-3.755-3.388a.713.713 0 0 1 .53.819l3.394 2.243c.306-.7.163-1.65-.35-2.393l-3.268-4.75a.56.56 0 0 0-.313-.225v4.306zm-3.925.688a2.62 2.62 0 0 0-.406 2.25l3.512-2.044a.714.714 0 0 1 .462-.862V13.58a.56.56 0 0 0-.274.213l-3.294 4.75zm-2.95-4.9-3.043-2.681a1.7 1.7 0 0 0-.244.962c.031.813.25 1.644.625 2.381.244.488.406 1.019.475 1.563a5.75 5.75 0 0 0 .825 2.312c.231.362.537.575.875.669l.768-4.162a.7.7 0 0 1-.356-.432.75.75 0 0 1 .075-.612m-.131 5.262c.687.025 1.437-.406 1.912-1.1l3.281-4.75a.6.6 0 0 0 .106-.343L6.563 14.05a.73.73 0 0 1-.475.7 1 1 0 0 1-.169.031zm.488-5.518a.66.66 0 0 1 .8.319l3.9-1.331a.57.57 0 0 0-.3-.232l-5.313-1.812c-.83-.275-1.737-.125-2.274.4l3.08 2.7zm9.923-7.456-1.475-3.874c.288-.094.606-.088.938.043a5.26 5.26 0 0 1 1.968 1.356c.36.397.787.725 1.263.969.717.37 1.34.898 1.824 1.544.257.343.357.712.338 1.074l-4-.512a.7.7 0 0 0-.268-.487.65.65 0 0 0-.582-.113z"/>
    <path fill="#fff" d="m15.568 5.938-1.475-3.874c.288-.094.606-.088.938.043a5.26 5.26 0 0 1 1.968 1.356c.36.397.787.725 1.263.969.717.37 1.34.898 1.824 1.544.257.343.357.712.338 1.074l-4-.512a.7.7 0 0 0-.268-.487.65.65 0 0 0-.582-.113zm-.518.301a.77.77 0 0 0 .043.906l-2.35 3.474a.62.62 0 0 1-.118-.375l.006-5.855c0-.919.413-1.775 1.038-2.15l1.456 3.912z"/>
    <path fill="#fff" d="M15.05 6.239a.77.77 0 0 0 .043.906l-2.35 3.474a.62.62 0 0 1-.118-.375l.006-5.855c0-.919.413-1.775 1.038-2.15l1.456 3.912zm5.35 1.199a2.46 2.46 0 0 1-1.588 1.581l-5.324 1.813a.54.54 0 0 1-.344 0l2.412-3.487a.67.67 0 0 0 .781-.25c.032-.057.063-.107.082-.163l3.98.513z"/>
    <path fill="#fff" d="M20.4 7.438a2.46 2.46 0 0 1-1.588 1.581l-5.324 1.813a.54.54 0 0 1-.344 0l2.412-3.487a.67.67 0 0 0 .781-.25c.032-.057.063-.107.082-.163l3.98.513zM10.106 2.064 8.632 5.938a.63.63 0 0 0-.582.113.75.75 0 0 0-.275.487l-3.987.513a1.6 1.6 0 0 1 .332-1.075 5.3 5.3 0 0 1 1.824-1.544 4.4 4.4 0 0 0 1.263-.968 5.26 5.26 0 0 1 1.962-1.356c.331-.125.65-.138.937-.05zM5.413 9.013a2.46 2.46 0 0 1-1.581-1.575l3.975-.512c.018.056.05.106.08.156.188.262.5.362.782.256l2.406 3.487a.54.54 0 0 1-.344 0L5.42 9.013zm3.494-1.868a.76.76 0 0 0-.031-.994l1.456-3.912c.625.375 1.031 1.237 1.037 2.15l.006 5.874a.63.63 0 0 1-.118.369z"/>
</svg>
